X: 14381
T: Galtee, The
R: reel
M: 4/4
K: Adorian
|:aged ccAG|EA ~A2 EA ~A2|aged ccAc|BG ~G2 dGdg|
aged cAAG|eggg aaga|bgag egga|1 gedB cAAe:|2 gedB cAAB||
|:~c2cB cded|cAAA dcAG|cAAB cded|cAAG EGAB|
~c2cB cded|cAAe aaga|bgag egga|1 gedB cAAB|2 gedB cAAe||

